app/dist/common/images/occidental-petroleum.svg

<svg height="18" width="18" xmlns="http://www.w3.org/2000/svg"><path d="m0 0h18v18h-18z" fill="#f0f3fa"/><path d="m7.015 11c.566.88 1.623 1.76 3.452 1.804 1.263 0 2.293-.45 3.066-1.263.13-.158.284-.383.361-.541h.106c-.835 1.75-2.74 2.978-4.883 3h-.117c-.928-.023-1.778-.18-2.603-.586 0 0-1.623-.677-2.396-2.414h3.015z" fill="#005bab"/><path d="m8.554 8c.187.26.328.435.445.609.14-.196.234-.326.445-.609h1.056c-.305.37-.61.76-.822 1 .282.348.54.674.82 1h-1.077c-.14-.196-.258-.37-.422-.587a9.71 9.71 0 0 1 -.445.587h-1.054c.258-.326.539-.674.82-1-.258-.304-.586-.674-.82-1zm3.944.587c.164-.196.338-.391.502-.587h1c-.422.5-.839 1.054-1.003 1.25v.75h-1v-.75c-.187-.24-.809-1.01-.997-1.25h1z" fill="#ed1b2f"/><path d="m10.998 7c-.537-.874-1.652-1.73-3.466-1.8-1.277 0-2.273.484-3.04 1.288-.128.161-.303.351-.405.512h-.087c.83-1.788 2.768-2.984 4.899-3h.101c.92.046 1.752.189 2.569.58 0 0 1.639.65 2.431 2.42z" fill="#005bab"/><path d="m6.42 10h-1.816c-.41 0-.604-.261-.604-.457v-1.108c0-.31.387-.435.605-.435h1.814c.583 0 .581.435.581.435v1.108s.002.457-.58.457zm-1.42-1.087v.37s0 .218.242.218h.52c.17 0 .238-.1.238-.251l.004-.533c0-.13-.12-.217-.242-.217h-.262-.258c-.242 0-.242.196-.242.196z" fill="#ed1b2f"/></svg>

<!-- by TradingView --><svg width="18" height="18" xmlns="http://www.w3.org/2000/svg"><path fill="#F0F3FA" d="M0 0h18v18H0z"/><path d="M7.015 11c.566.88 1.623 1.76 3.452 1.804 1.263 0 2.293-.45 3.066-1.263.13-.158.284-.383.361-.541H14c-.835 1.75-2.74 2.978-4.883 3H9c-.928-.023-1.778-.18-2.603-.586 0 0-1.623-.677-2.396-2.414h3.015z" fill="#005BAB"/><path d="M8.554 8c.187.26.328.435.445.609.14-.196.234-.326.445-.609H10.5c-.305.37-.61.76-.822 1 .282.348.54.674.82 1H9.421c-.14-.196-.258-.37-.422-.587a9.71 9.71 0 01-.445.587H7.5c.258-.326.539-.674.82-1-.258-.304-.586-.674-.82-1h1.054zM12.498 8.587c.164-.196.338-.391.502-.587h1c-.422.5-.839 1.054-1.003 1.25V10h-1v-.75C11.81 9.01 11.188 8.24 11 8h1l.498.587z" fill="#ED1B2F"/><path d="M10.998 7c-.537-.874-1.652-1.73-3.466-1.8-1.277 0-2.273.484-3.04 1.288-.128.161-.303.351-.405.512H4c.83-1.788 2.768-2.984 4.899-3H9c.92.046 1.752.189 2.569.58 0 0 1.639.65 2.431 2.42h-3.002z" fill="#005BAB"/><path d="M6.42 10H4.604C4.194 10 4 9.739 4 9.543V8.435c0-.31.387-.435.605-.435h1.814c.583 0 .581.435.581.435v1.108s.002.457-.58.457zM5 8.913v.37s0 .218.242.218h.52c.17 0 .238-.1.238-.251l.004-.533c0-.13-.12-.217-.242-.217H5.5h-.258C5 8.5 5 8.696 5 8.696v.217z" fill="#ED1B2F"/></svg>
